Adwaita++/emblems/16/emblem-documents.svg

<svg fill="none" height="16" viewBox="0 0 16 16" width="16" xmlns="http://www.w3.org/2000/svg">
  <path d="m13.6 1h-11.2c-.7732 0-1.4.6268-1.4 1.4v11.2c0 .7732.6268 1.4 1.4 1.4h11.2c.7732 0 1.4-.6268 1.4-1.4v-11.2c0-.7732-.6268-1.4-1.4-1.4z" fill="#b5835a"/>
  <g fill="#f6f5f4">
    <path d="m4 7h8v2h-8z"/>
    <path d="m4 11h8v2h-8z"/>
    <path d="m4 3h8v2h-8z"/>
  </g>
</svg>

<svg xmlns="http://www.w3.org/2000/svg" fill="none" width="16" height="16" viewBox="0 0 16 16">
 <path fill="url(#paint0_linear)" d="M13.6 1H2.4C1.6268 1 1 1.6268 1 2.4V13.6C1 14.3732 1.6268 15 2.4 15H13.6C14.3732 15 15 14.3732 15 13.6V2.4C15 1.6268 14.3732 1 13.6 1Z"/>
 <rect fill="url(#paint1_linear)" width="8" height="2" x="4" y="7"/>
 <rect fill="url(#paint2_linear)" width="8" height="2" x="4" y="11"/>
 <rect fill="url(#paint3_linear)" width="8" height="2" x="4" y="3"/>
 <defs>
  <linearGradient id="paint0_linear" x1="1" x2="15" y1="8" y2="8" gradientUnits="userSpaceOnUse">
   <stop stop-color="#B5835A"/>
  </linearGradient>
  <linearGradient id="paint1_linear" x1="4" x2="12" y1="8" y2="8" gradientUnits="userSpaceOnUse">
   <stop stop-color="#F6F5F4"/>
  </linearGradient>
  <linearGradient id="paint2_linear" x1="4" x2="12" y1="12" y2="12" gradientUnits="userSpaceOnUse">
   <stop stop-color="#F6F5F4"/>
  </linearGradient>
  <linearGradient id="paint3_linear" x1="4" x2="12" y1="4" y2="4" gradientUnits="userSpaceOnUse">
   <stop stop-color="#F6F5F4"/>
  </linearGradient>
 </defs>
</svg>
